src/lib/packages/icons/src/assets/filled/folder-ban.svg

<svg xmlns="http://www.w3.org/2000/svg" width="24" height="24" fill="none"><path fill="currentColor" d="M13.331 11.108 9.61 14.831a2.722 2.722 0 0 1-.36-1.331A2.753 2.753 0 0 1 12 10.75c.485 0 .935.137 1.331.358Zm-2.662 4.784c.396.221.845.358 1.331.358a2.753 2.753 0 0 0 2.75-2.75 2.71 2.71 0 0 0-.359-1.331l-3.722 3.723ZM21 10v7c0 2-1 3-3 3H6c-2 0-3-1-3-3V7c0-2 1-3 3-3h4l3 3h5c2 0 3 1 3 3Zm-4.75 3.5A4.254 4.254 0 0 0 12 9.25a4.254 4.254 0 0 0-4.25 4.25A4.254 4.254 0 0 0 12 17.75a4.254 4.254 0 0 0 4.25-4.25Z"/></svg>

<svg width="24" height="24" viewBox="0 0 24 24" fill="none" xmlns="http://www.w3.org/2000/svg">
<path d="M13.3311 11.108L9.60889 14.831C9.38789 14.435 9.25 13.985 9.25 13.5C9.25 11.984 10.483 10.75 12 10.75C12.485 10.75 12.9351 10.887 13.3311 11.108ZM10.6689 15.892C11.0649 16.113 11.514 16.25 12 16.25C13.517 16.25 14.75 15.016 14.75 13.5C14.75 13.015 14.6131 12.565 14.3911 12.169L10.6689 15.892ZM21 10V17C21 19 20 20 18 20H6C4 20 3 19 3 17V7C3 5 4 4 6 4H10L13 7H18C20 7 21 8 21 10ZM16.25 13.5C16.25 11.156 14.344 9.25 12 9.25C9.656 9.25 7.75 11.156 7.75 13.5C7.75 15.844 9.656 17.75 12 17.75C14.344 17.75 16.25 15.844 16.25 13.5Z" fill="currentColor"/>
</svg>
